static/svgs/quix-logo-white.svg

<svg width="139" height="50" viewBox="0 0 139 50" fill="none" xmlns="http://www.w3.org/2000/svg">
<g clip-path="url(#clip0_222_15173)">
<path d="M29.5404 20.4508H20.4512V29.5401H29.5404V20.4508Z" fill="#0064FF"/>
<path d="M38.4016 30.6763H32.0392C31.2862 30.6763 30.6758 31.2867 30.6758 32.0397V38.4021C30.6758 39.1551 31.2862 39.7655 32.0392 39.7655H38.4016C39.1546 39.7655 39.765 39.1551 39.765 38.4021V32.0397C39.765 31.2867 39.1546 30.6763 38.4016 30.6763Z" fill="#BC2EFF"/>
<path d="M44.7644 49.9909C47.6508 49.9909 49.9907 47.6509 49.9907 44.7645C49.9907 41.8781 47.6508 39.5382 44.7644 39.5382C41.878 39.5382 39.5381 41.8781 39.5381 44.7645C39.5381 47.6509 41.878 49.9909 44.7644 49.9909Z" fill="#FF7828"/>
<path fill-rule="evenodd" clip-rule="evenodd" d="M0 0.908926V49.082C0 49.5819 0.409017 49.9909 0.908926 49.9909H28.6312C29.1311 49.9909 29.5401 49.5819 29.5401 49.082V41.8106C29.5401 41.3107 29.1311 40.9017 28.6312 40.9017H9.08926V9.08926H40.9017V28.6812C40.9017 29.1811 41.3107 29.5901 41.8106 29.5901H49.082C49.5819 29.5901 49.9909 29.1811 49.9909 28.6812V0.908926C49.9909 0.409017 49.5819 0 49.082 0H0.908926C0.409017 0 0 0.409017 0 0.908926ZM101.35 20.46H94.0652C93.5632 20.46 93.1562 20.8669 93.1562 21.3689V49.0911C93.1562 49.5931 93.5632 50 94.0652 50H101.35C101.852 50 102.259 49.5931 102.259 49.0911V21.3689C102.259 20.8669 101.852 20.46 101.35 20.46ZM94.0652 4.53552H101.35C101.852 4.53552 102.259 4.94246 102.259 5.44445V12.7295C102.259 13.2315 101.852 13.6384 101.35 13.6384H94.0652C93.5632 13.6384 93.1562 13.2315 93.1562 12.7295V5.44445C93.1562 4.94246 93.5632 4.53552 94.0652 4.53552ZM77.2636 21.3688V40.8971H65.8929V21.3597C65.8929 20.8598 65.4839 20.4508 64.984 20.4508H57.699C57.1991 20.4508 56.79 20.8598 56.79 21.3597L56.8264 49.0911C56.8264 49.591 57.2354 50 57.7353 50H85.4576C85.9575 50 86.3665 49.591 86.3665 49.0911V21.3688C86.3665 20.8689 85.9575 20.4599 85.4576 20.4599H78.1725C77.6726 20.4599 77.2636 20.8689 77.2636 21.3688ZM130.431 20.4508H137.702C138.202 20.4508 138.611 20.8598 138.611 21.3597V29.5401L130.072 35.2072L138.611 40.9016V49.082C138.611 49.5819 138.202 49.9909 137.702 49.9909H130.431C129.931 49.9909 129.522 49.5819 129.522 49.082V43.174L123.81 39.3656L118.161 43.1149V49.082C118.161 49.5819 117.752 49.9909 117.252 49.9909H109.98C109.48 49.9909 109.071 49.5819 109.071 49.082V40.9016L117.592 35.2208L109.071 29.5401V21.3597C109.071 20.8598 109.48 20.4508 109.98 20.4508H117.252C117.752 20.4508 118.161 20.8598 118.161 21.3597V27.2677L123.841 31.0534L129.522 27.2677V21.3597C129.522 20.8598 129.931 20.4508 130.431 20.4508Z" fill="white"/>
</g>
<defs>
<clipPath id="clip0_222_15173">
<rect width="138.611" height="50" fill="white"/>
</clipPath>
</defs>
</svg>

<svg version="1.1" xmlns="http://www.w3.org/2000/svg" xmlns:xlink="http://www.w3.org/1999/xlink" x="0px" y="0px"
	 viewBox="0 0 139 50" style="enable-background:new 0 0 139 50;" xml:space="preserve">
<style type="text/css">
	.st0{clip-path:url(#SVGID_00000181075645780536720220000009196893729404315553_);}
	.st1{fill:#0064FF;}
	.st2{fill:#BC2EFF;}
	.st3{fill:#FF7828;}
	.st4{fill-rule:evenodd;clip-rule:evenodd;fill:#FFFFFF;}
</style>
<g>
	<defs>
		<rect id="SVGID_1_" width="138.6" height="50"/>
	</defs>
	<clipPath id="SVGID_00000012462499044799638470000009725415952126080949_">
		<use xlink:href="#SVGID_1_"  style="overflow:visible;"/>
	</clipPath>
	<g style="clip-path:url(#SVGID_00000012462499044799638470000009725415952126080949_);">
		<path class="st1" d="M29.5,20.5h-9.1v9.1h9.1V20.5z"/>
		<path class="st2" d="M38.4,30.7H32c-0.8,0-1.4,0.6-1.4,1.4v6.4c0,0.8,0.6,1.4,1.4,1.4h6.4c0.8,0,1.4-0.6,1.4-1.4V32
			C39.8,31.3,39.2,30.7,38.4,30.7z"/>
		<path class="st3" d="M44.8,50c2.9,0,5.2-2.3,5.2-5.2c0-2.9-2.3-5.2-5.2-5.2c-2.9,0-5.2,2.3-5.2,5.2C39.5,47.7,41.9,50,44.8,50z"/>
		<path class="st4" d="M0,0.9v48.2C0,49.6,0.4,50,0.9,50h27.7c0.5,0,0.9-0.4,0.9-0.9v-7.3c0-0.5-0.4-0.9-0.9-0.9H9.1V9.1h31.8v19.6
			c0,0.5,0.4,0.9,0.9,0.9h7.3c0.5,0,0.9-0.4,0.9-0.9V0.9C50,0.4,49.6,0,49.1,0H0.9C0.4,0,0,0.4,0,0.9z M101.3,20.5h-7.3
			c-0.5,0-0.9,0.4-0.9,0.9v27.7c0,0.5,0.4,0.9,0.9,0.9h7.3c0.5,0,0.9-0.4,0.9-0.9V21.4C102.3,20.9,101.9,20.5,101.3,20.5z M94.1,4.5
			h7.3c0.5,0,0.9,0.4,0.9,0.9v7.3c0,0.5-0.4,0.9-0.9,0.9h-7.3c-0.5,0-0.9-0.4-0.9-0.9V5.4C93.2,4.9,93.6,4.5,94.1,4.5z M77.3,21.4
			v19.5H65.9V21.4c0-0.5-0.4-0.9-0.9-0.9h-7.3c-0.5,0-0.9,0.4-0.9,0.9l0,27.7c0,0.5,0.4,0.9,0.9,0.9h27.7c0.5,0,0.9-0.4,0.9-0.9
			V21.4c0-0.5-0.4-0.9-0.9-0.9h-7.3C77.7,20.5,77.3,20.9,77.3,21.4z M130.4,20.5h7.3c0.5,0,0.9,0.4,0.9,0.9v8.2l-8.5,5.7l8.5,5.7
			v8.2c0,0.5-0.4,0.9-0.9,0.9h-7.3c-0.5,0-0.9-0.4-0.9-0.9v-5.9l-5.7-3.8l-5.6,3.7v6c0,0.5-0.4,0.9-0.9,0.9H110
			c-0.5,0-0.9-0.4-0.9-0.9v-8.2l8.5-5.7l-8.5-5.7v-8.2c0-0.5,0.4-0.9,0.9-0.9h7.3c0.5,0,0.9,0.4,0.9,0.9v5.9l5.7,3.8l5.7-3.8v-5.9
			C129.5,20.9,129.9,20.5,130.4,20.5z"/>
	</g>
</g>
</svg>
